_includes/icons/color-donate.svg

<svg fill="#666" height="50" viewBox="0 0 48 48" width="50" xmlns="http://www.w3.org/2000/svg"><path d="m11.699219 21.601563 5.101562 9.898437 9.5-3.898437 4.398438-12.703125-14.800781.800781z" fill="#e69329"/><path d="m22.800781 36c0 4.308594-3.492187 7.800781-7.800781 7.800781s-7.800781-3.492187-7.800781-7.800781 3.492187-7.800781 7.800781-7.800781 7.800781 3.492187 7.800781 7.800781z" fill="#546e7a"/><path d="m15 27c-5 0-9 4-9 9s4 9 9 9 9-4 9-9-4-9-9-9zm0 16c-3.898437 0-7-3.101562-7-7 0-3.898437 3.101563-7 7-7 3.898438 0 7 3.101563 7 7 0 3.898438-3.101562 7-7 7z" fill="#90a4ae"/><path d="m14 33h2v8h-2z" fill="#90a4ae"/><path d="m12.898438 36c1 1.898438 3.203125 2.699219 5.101562 1.699219l16.5-8.5c1-.5 1.699219-1.199219 2.199219-1.898438 1.699219-3.199218 5.601562-10.699218 8.199219-17.199218l-18.199219 8.699218-4.800781 7.199219-6.796875 3.601563c-2.601563 1.296875-3.402344 4.199218-2.203125 6.398437z" fill="#ffb74d"/><path d="m30.199219 3-16.5 6.300781c-.699219.199219-1.5 1-2.199219 1.699219l-5.601562 7.5c-1 1.5-1.199219 3.398438-.5 5.101563.402343 1 1.703125 3.398437 3.101562 6.097656 1.601563-1.699219 3.898438-2.699219 6.5-2.699219.398438 0 .898438 0 1.300781.101563l-2.101562-4.203125 4.601562-4.097657h8s15.5-2.199218 18.199219-8.699218z" fill="#ffb74d"/><path d="m18.199219 36c-1.300781.601563-2.800781 0-3.300781-1.300781-.597657-1.300781 0-2.800781 1.300781-3.300781 1.199219-.597657 3.199219 4 2 4.601562z" fill="#ffcdd2"/></svg>

<svg xmlns="http://www.w3.org/2000/svg" viewBox="0 0 48 48" width="50" height="50" fill="#666"><path d="M 11.699219 21.601563 L 16.800781 31.5 L 26.300781 27.601563 L 30.699219 14.898438 L 15.898438 15.699219 Z" fill="#e69329"/><path d="M 22.800781 36 C 22.800781 40.308594 19.308594 43.800781 15 43.800781 C 10.691406 43.800781 7.199219 40.308594 7.199219 36 C 7.199219 31.691406 10.691406 28.199219 15 28.199219 C 19.308594 28.199219 22.800781 31.691406 22.800781 36 Z" fill="#546e7a"/><path d="M 15 27 C 10 27 6 31 6 36 C 6 41 10 45 15 45 C 20 45 24 41 24 36 C 24 31 20 27 15 27 Z M 15 43 C 11.101563 43 8 39.898438 8 36 C 8 32.101563 11.101563 29 15 29 C 18.898438 29 22 32.101563 22 36 C 22 39.898438 18.898438 43 15 43 Z" fill="#90a4ae"/><path d="M 14 33 L 16 33 L 16 41 L 14 41 Z" fill="#90a4ae"/><path d="M 12.898438 36 C 13.898438 37.898438 16.101563 38.699219 18 37.699219 L 34.5 29.199219 C 35.5 28.699219 36.199219 28 36.699219 27.300781 C 38.398438 24.101563 42.300781 16.601563 44.898438 10.101563 L 26.699219 18.800781 L 21.898438 26 L 15.101563 29.601563 C 12.5 30.898438 11.699219 33.800781 12.898438 36 Z" fill="#ffb74d"/><path d="M 30.199219 3 L 13.699219 9.300781 C 13 9.5 12.199219 10.300781 11.5 11 L 5.898438 18.5 C 4.898438 20 4.699219 21.898438 5.398438 23.601563 C 5.800781 24.601563 7.101563 27 8.5 29.699219 C 10.101563 28 12.398438 27 15 27 C 15.398438 27 15.898438 27 16.300781 27.101563 L 14.199219 22.898438 L 18.800781 18.800781 L 26.800781 18.800781 C 26.800781 18.800781 42.300781 16.601563 45 10.101563 Z" fill="#ffb74d"/><path d="M 18.199219 36 C 16.898438 36.601563 15.398438 36 14.898438 34.699219 C 14.300781 33.398438 14.898438 31.898438 16.199219 31.398438 C 17.398438 30.800781 19.398438 35.398438 18.199219 36 Z" fill="#ffcdd2"/></svg>
